X:08
C:Page 04
T:Nancy Dawson. MBe.08
S:Matthew Betham MS, Towcett Cumbria, 1815
O:England;Cumbria;Towcett
Z:VMP – Hugh Taylor, 2012
M:6/8
L:1/8
Q:3/8=120
R:.Jig
K:G
D|G2 G G>AB/c/|d2 B G2 B|A2 B A2 B|A2 G FED|
G2 G G>AB/c/|d2 B G2 B|A2 G F2 E|”^dot added”D3 D3:|
|:A2 B G2 B|A2 B AFD|B2 c d2 e|d2 e dBG|
c2 B c2 d|e2 f gfe|dcB AGF|”^dot added”G3 G3:|

